icons/file-zip-16.svg

<svg width="16" height="16" viewBox="0 0 16 16" xmlns="http://www.w3.org/2000/svg">
  <path fill-rule="evenodd" clip-rule="evenodd" d="M3.5 1.75C3.5 1.61193 3.61193 1.5 3.75 1.5H6.74957C6.33556 1.50023 6 1.83593 6 2.25C6 2.66421 6.33579 3 6.75 3L7.25 3C7.66421 3 8 2.66421 8 2.25C8 1.83579 7.66421 1.5 7.25 1.5H9.33579C9.40209 1.5 9.46568 1.52634 9.51256 1.57322L12.4268 4.48744C12.4737 4.53432 12.5 4.59791 12.5 4.66421V13.25C12.5 13.3881 12.3881 13.5 12.25 13.5H11.75C11.3358 13.5 11 13.8358 11 14.25C11 14.6642 11.3358 15 11.75 15H12.25C13.2165 15 14 14.2165 14 13.25V4.66421C14 4.20008 13.8156 3.75497 13.4874 3.42678L10.5732 0.512563C10.245 0.184374 9.79991 0 9.33579 0H3.75C2.7835 0 2 0.783502 2 1.75V13.25C2 13.8987 2.35334 14.464 2.87446 14.7654C3.233 14.9728 3.6918 14.8503 3.8992 14.4918C4.10661 14.1332 3.98409 13.6744 3.62554 13.467C3.54886 13.4227 3.5 13.3416 3.5 13.25V1.75ZM8.75 3C8.33579 3 8 3.33579 8 3.75C8 4.16421 8.33579 4.5 8.75 4.5H9.25C9.66421 4.5 10 4.16421 10 3.75C10 3.33579 9.66421 3 9.25 3L8.75 3ZM6 5.25C6 4.83579 6.33579 4.5 6.75 4.5L7.25 4.5C7.66421 4.5 8 4.83579 8 5.25C8 5.66421 7.66421 6 7.25 6H6.75C6.33579 6 6 5.66421 6 5.25ZM8 6.75C8 6.33579 8.33579 6 8.75 6L9.25 6C9.66421 6 10 6.33579 10 6.75C10 7.16421 9.66421 7.5 9.25 7.5H8.75C8.33579 7.5 8 7.16421 8 6.75ZM6.75 7.5C6.33579 7.5 6 7.83579 6 8.25C6 8.66421 6.33579 9 6.75 9H7.25C7.66421 9 8 8.66421 8 8.25C8 7.83579 7.66421 7.5 7.25 7.5L6.75 7.5ZM8 9.75C8 9.33579 8.33579 9 8.75 9H9.25C9.66421 9 10 9.33579 10 9.75C10 10.1642 9.66421 10.5 9.25 10.5H8.75C8.33579 10.5 8 10.1642 8 9.75ZM7.25 10.5C6.2835 10.5 5.5 11.2835 5.5 12.25V15.25C5.5 15.6642 5.83579 16 6.25 16H8.75C9.16421 16 9.5 15.6642 9.5 15.25V12.25C9.5 11.2835 8.7165 10.5 7.75 10.5H7.25ZM7 12.25C7 12.1119 7.11193 12 7.25 12H7.75C7.88807 12 8 12.1119 8 12.25V14.5H7V12.25Z"/>
</svg>

<svg xmlns="http://www.w3.org/2000/svg" width="16" height="16" viewBox="0 0 16 16"><path fill-rule="evenodd" d="M3.5 1.75a.25.25 0 01.25-.25h3a.75.75 0 000 1.5h.5a.75.75 0 000-1.5h2.086a.25.25 0 01.177.073l2.914 2.914a.25.25 0 01.073.177v8.586a.25.25 0 01-.25.25h-.5a.75.75 0 000 1.5h.5A1.75 1.75 0 0014 13.25V4.664c0-.464-.184-.909-.513-1.237L10.573.513A1.75 1.75 0 009.336 0H3.75A1.75 1.75 0 002 1.75v11.5c0 .649.353 1.214.874 1.515a.75.75 0 10.752-1.298.25.25 0 01-.126-.217V1.75zM8.75 3a.75.75 0 000 1.5h.5a.75.75 0 000-1.5h-.5zM6 5.25a.75.75 0 01.75-.75h.5a.75.75 0 010 1.5h-.5A.75.75 0 016 5.25zm2 1.5A.75.75 0 018.75 6h.5a.75.75 0 010 1.5h-.5A.75.75 0 018 6.75zm-1.25.75a.75.75 0 000 1.5h.5a.75.75 0 000-1.5h-.5zM8 9.75A.75.75 0 018.75 9h.5a.75.75 0 010 1.5h-.5A.75.75 0 018 9.75zm-.75.75a1.75 1.75 0 00-1.75 1.75v3c0 .414.336.75.75.75h2.5a.75.75 0 00.75-.75v-3a1.75 1.75 0 00-1.75-1.75h-.5zM7 12.25a.25.25 0 01.25-.25h.5a.25.25 0 01.25.25v2.25H7v-2.25z"/></svg>
